X:1
T:Herr Jesu, dein Barmherzigkeit
T:Adam Gumpelzaimer
T:Source : Neüe Teütsche Geistliche Lieder mit 3 stimmen---Augsburg---V.Schönigk--- Editor : André Vierendeels (05/07/16).
T:Notes : Original clefs : G2, G2, C3 Text Middle German
T:Herr Jesu, dein Barmherzigkeit
T:©
T:©
T:©
T:©
C:Adam Gumpelzaimer
Z:©
%%score [ 1 2 3 ]
L:1/8
Q:1/4=96
M:4/4
K:C
V:1 treble nm="Soprano 1" snm="S 1"
V:2 treble nm="Soprano 2" snm="S 2"
V:3 treble-8 nm="Tenor" snm="T"
V:1
 d4 e4 | d2 f4 e2 | e6 d2 | c4 c4 | B2 d2 e2 d2 | c2 B2 c2 dG | A2 B2 cdef | g2 e2 d4 |[M:2/4] e4 | %9
w: Herr Je-|su, dein Barm-|her- *|* zig-|keit, ü- ber trifft|all dein wer- cke, ü-|ber- trifft all _ _ _|_ dein wer-|cke,|
w: Kein Sün-|der nicht kann|sein _|_ so|grosz, wenn er nun|thut war Bus- se, wenn|er nun thut _ _ _|_ war Bus-|se,|
w: So fal-|len auch weg|die _|Sün- den|all, für Chri- sto|dem wah'rn Lie- chte, der|Chri- sto denn _ _ _|_ wah'rn Lie-|chte,|
[M:4/4] d4 e4 | d2 f4 e2 | e6 d2 | c4 c4 | B2 d2 e2 d2 | c2 B2 c2 dG | A2 B2 cdef | g2 e2 d4 | %17
w: die prei-|sen wir mit|in- *|* nig-|keit, den glau- ben|inn uns ster- cke, den|glau- ben inn _ _ _|_ uns ster-|
w: ver- lest|sich auff dein|gna- *|* de|blosz, auff dein todt|al- lein fus- set, all|sün- den him _ _ _|ver- zie- hen|
w: die uns|ge- bracht hat-|ten _|_ zu|fall, wir la- gen|inn Ge- ri- chte, ge-|hör- ten in _ _ _|den Schwef- fel|
[M:2/4] e4 |: z2 d2 |[M:4/4] e3 d c2 B2 | A2 G4 ^F2 | G4 z2 d2 | c2 A2 B2 c2 | efgf ed c2- | %24
w: cke,|das|wir mö- gen ohn|un- * ter-|lasz dein|treü- es Herz be-|den- * * * * * *|
w: sind,|gleich|wie die Fin- ster-|nusz _ ge-|schwindt, flie-|hen für dem schein|der _ _ _ _ _ _|
w: schacht,|nie-|mands ists der uns|se- * lig|macht, denn|du mit dei- nem|Blu- * * * * * *|
 c2 B2 c4 | z2 c2 e3 f | g4 z2 G2 | B3 c d4 | z2 G2 A2 d2- | dc B2 A4 | B8 :| %31
w: * cken hasz,|das du, _|_ das|du, _ _|das du ge-|* gen uns tre-|get.|
w: _ Son- nen,|||||||
w: * * te,|||||||
V:2
 B4 c4 | B2 A4 G2- | G2 A3 G G2- | G2 FE F2 F2 | G4 z2 d2 | e2 d2 c2 B2 | c2 GG A2 A2 | G2 c4 B2 | %8
w: Herr Je-|su, dein Barm-|* her- * *|* * * * zig-|keit, ü-|ber trifft all dein|wer- cke, ü- ber- trifft|all dein wer-|
w: Kein Sün-|der nicht kann|_ sein _ _|_ _ _ _ so|grosz, wenn|wenn er thut war|Bus- se, wenn er thut|war Bus- *|
w: So fal-|len auch weg|_ die _ _|_ _ _ Sün- den|all, für|Chri- sto denn wah'rn|Lie- chte, für Chri- sto|denn wah'rn Lie-|
[M:2/4] c4 |[M:4/4] B4 c4 | B2 A4 G2- | G2 A3 G G2- | G2 FE F2 F2 | G4 z2 d2 | e2 d2 c2 B2 | %15
w: cke,|die prei-|sen wir mit|in- * * *|* * * * nig-|keit, den|glau- ben inn uns|
w: se,|ver- lest|sich auff dein|_ gna- * *|* * * * de|blosz, auff|dein todt al- lein|
w: chte,|die uns|ge- bracht hat-|ten _ _ _|_ _ _ _ zu|fall, wir|la- gen inn Ge-|
 c2 GG A2 A2 | G2 c4 B2 |[M:2/4] c4 |: z2 B2 |[M:4/4] c3 d e2 d2 | c4 A4 | B4 z4 | z2 c2 B2 G2 | %23
w: ster- cke, den glau- ben|inn ins ster-|cke,|das|wir mö- gen ohn|un- ter-|lasz|dein treü- es|
w: fus- set, all sün- den|him ver- zieh'|sind,|gleich|wie die Fin- ster-|nusz ge-|schwindt,|flie- hen für|
w: ri- chte, g'hör- ten in|den Schwef- fel|schacht,|nie-|mands ists der uns|se- lig|macht,|denn du mit|
 A2 G2 g4 | f4 e2 c2 | e3 f g4 | z2 G2 B3 c | d4 z2 G2 | B3 c d2 B2 | A2 G4 ^F2 | G8 :| %31
w: Herz be- den-|cken hasz, das|du, _ _|das du, _|_ das|du _ _ ge-|gen uns tre-|get.|
w: die schein der|Son- ne, das|du, _ _||||||
w: dei- nem Blu|_ te, das|du, _ _||||||
V:3
 g4 c4 | G2 d4 e2 | c6 B2 | A4 A4 | G8 | z2 g2 a2 g2 | f2 e2 ABcd | edef g4 |[M:2/4] c4 | %9
w: Herr Je-|su, dein Barm-|her- *|* zig-|keit|u- ber- trifft|all dein wer- * * *||cke,|
w: Kein Sün-|der nicht kann|sein _|_ so|grosz,|wenn er thur|war Bus- * * * *||se,|
w: So fal-|len auch weg|die _|Sün- den|all,|für Chri- sto|denn wah'rn Lie- * * *||chte,|
[M:4/4] g4 c4 | G2 d4 e2 | c6 B2 | A4 A4 | G8 | z2 g2 a2 g2 | f2 e2 ABcd | edef g4 |[M:2/4] c4 |: %18
w: die prei-|sen wir mit|in- *|* nig-|keit,|den glau- ben|inn uns ster- * * *||cke,|
w: ver- lest|sich auff dein|gna- *|* de|blosz,|auff dein todt|al- lein fus- * * *||set,|
w: die uns|ge- bracht hat-|ten _|_ zu|fall,|wir la- gen|inn Ge- ri- * * *||chte|
 z2 G2 |[M:4/4] c3 B A2 B2 | c4 d4 | G2 g2 f2 d2 | e2 f2 gfed | c3 d e4 | d4 c4 | z4 z2 c2 | %26
w: das|wir mö- gen ohn|un- ter-|lasz, dein treü- es|Herz be- den- * * *||cken hasz,|das|
w: gleich|wie die Fin- ster-|nusz ge-|schwindt, flie- hen für|die schein der _ _ _|_ _ _|Son- ne,||
w: nie-|mands ists der uns|se- lig|macht, den du mit|dei- nem Blu- * * *||* te;||
 e3 f g4 | z2 G2 B3 c | d2 e2 f2 g2 | d8 | G8 :| %31
w: du, _ _|das du, _|_ ge- gen uns|tre-|get.|
w: |||||
w: |||||

